X: 3
T: Sliabh Russell
M: 6/8
L: 1/8
R: jig
K: Ador
|:\
"Am"eAA Bcd | eaf "G"ged | "Am"edB cBA |\
[1,3 "G"BAG "Em"ABd :|[2 "Em"BAG "Am"A3 :|[4 "G"BAG "Em"ABd ||
|:\
"Am"eaa efg | agf "G"gfd |\
[1,3 "Am"eaa efg | "D"afd "Em"e3 :|\
[2,4 "Am"edB cBA | "G"BAG "Am"ABd :|


